wp-content/themes/blackfoot/assets/img/icon-cart.svg

<?xml version="1.0" encoding="UTF-8" standalone="no"?>
<svg width="24px" height="21px" viewBox="0 0 24 21" version="1.1" xmlns="http://www.w3.org/2000/svg" xmlns:xlink="http://www.w3.org/1999/xlink" xmlns:sketch="http://www.bohemiancoding.com/sketch/ns">
    <!-- Generator: Sketch 3.3.1 (12002) - http://www.bohemiancoding.com/sketch -->
    <title>Imported Layers</title>
    <desc>Created with Sketch.</desc>
    <defs></defs>
    <g id="Fishing-Report" stroke="none" stroke-width="1" fill="none" fill-rule="evenodd" sketch:type="MSPage">
        <g id="Fishing-Report-(Alert)" sketch:type="MSArtboardGroup" transform="translate(-1523.000000, -23.000000)" fill="#665F5A">
            <g id="HEADER-(basic)" sketch:type="MSLayerGroup" transform="translate(-31.000000, -19.000000)">
                <g id="Imported-Layers" transform="translate(1554.000000, 42.000000)" sketch:type="MSShapeGroup">
                    <path d="M7.457,16.1966667 C6.203,16.1966667 5.18233333,17.233 5.18233333,18.5066667 C5.18233333,19.7603333 6.203,20.7813333 7.457,20.7813333 C8.75133333,20.7813333 9.767,19.7813333 9.767,18.5066667 C9.767,17.211 8.75266667,16.1966667 7.457,16.1966667 L7.457,16.1966667 Z" id="Fill-1"></path>
                    <path d="M19.629,16.1966667 C18.3553333,16.1966667 17.3216667,17.233 17.3216667,18.5066667 C17.3216667,19.7603333 18.3553333,20.7813333 19.629,20.7813333 C20.8853333,20.7813333 21.9063333,19.7603333 21.9063333,18.5066667 C21.9063333,17.211 20.9063333,16.1966667 19.629,16.1966667 L19.629,16.1966667 Z" id="Fill-2"></path>
                    <path d="M23.2316667,3.55333333 C23.0533333,3.32933333 22.784,3.20066667 22.2863333,3.20066667 L5.20966667,3.20066667 L4.32566667,0.773333333 C4.18866667,0.405 3.83733333,0.159 3.444,0.159 L1.04033333,0.159 C0.520666667,0.159 0.100333333,0.580666667 0.100333333,1.099 C0.100333333,1.61833333 0.522,2.039 1.04033333,2.039 L2.789,2.039 L7.263,14.121 C7.401,14.4933333 7.75666667,14.7343333 8.14466667,14.7343333 C8.18233333,14.7343333 8.22,14.7316667 8.25766667,14.728 L20.7993333,13.2226667 C21.1966667,13.1743333 21.5196667,12.884 21.608,12.4923333 L23.418,4.34366667 C23.4793333,4.06633333 23.41,3.77466667 23.2316667,3.55333333 L23.2316667,3.55333333 Z" id="Fill-3"></path>
                </g>
            </g>
        </g>
    </g>
</svg>

<svg xmlns="http://www.w3.org/2000/svg" width="24" height="21"><title>Imported Layers</title><desc>Created with Sketch.</desc><g fill="none"><g fill="#665F5A"><g><g><path d="M7.46 16.2c-1.26 0-2.28 1.03-2.28 2.3 0 1.26 1.02 2.28 2.28 2.28 1.3 0 2.3-1 2.3-2.27 0-1.3-1-2.3-2.3-2.3z"/><path d="M19.63 16.2c-1.27 0-2.3 1.03-2.3 2.3 0 1.26 1.03 2.28 2.3 2.28 1.26 0 2.28-1.02 2.28-2.27 0-1.3-1-2.3-2.27-2.3z"/><path d="M23.23 3.55c-.18-.22-.45-.35-.94-.35H5.2L4.34.77c-.14-.36-.5-.6-.9-.6h-2.4C.54.16.1.56.1 1.1c0 .52.42.94.94.94H2.8l4.46 12.08c.14.37.5.6.88.6.04 0 .08 0 .12 0l12.54-1.5c.4-.05.72-.34.8-.73l1.82-8.16c.06-.27 0-.57-.2-.8z"/></g></g></g></g></svg>
